lib/brands/icons/tech-crunch.svg

<svg xmlns="http://www.w3.org/2000/svg" fill="none" aria-hidden="true" viewBox="0 0 48 48"><circle cx="20" cy="23" r="14" fill="url(#a)"/><path fill="#fff" d="M28 23.5V28h-4.5v10.5H19V28h-4.5v-4.5H28Zm4.5 4.5v6h9v4.5H28V28h4.5Zm0 0v-4.5h9V28h-9Z"/><defs><linearGradient id="a" x1="14" x2="28.5" y1="12" y2="33" gradientUnits="userSpaceOnUse"><stop stop-color="#13B069"/><stop offset="1" stop-color="#12C833"/></linearGradient></defs></svg>

<svg xmlns="http://www.w3.org/2000/svg" fill="none" aria-hidden="true" viewBox="0 0 48 48"><g id="tech_crunch-Icon"><g id="Group 602"><circle id="bg" cx="20" cy="23" r="14" fill="url(#paint0_linear_94_20602)"/><g id="tech_crunch"><path fill="white" d="M28 23.5V28H23.5V38.5H19V28H14.5V23.5H28Z"/><path fill="white" d="M32.5 28V34H41.5V38.5H28V28H32.5Z"/><path fill="white" d="M32.5 28V23.5H41.5V28H32.5Z"/></g></g></g><defs><linearGradient id="paint0_linear_94_20602" x1="14" x2="28.5" y1="12" y2="33" gradientUnits="userSpaceOnUse"><stop stop-color="#13B069"/><stop offset="1" stop-color="#12C833"/></linearGradient></defs></svg>
